lib/brands/logos/active-directory.svg

<svg xmlns="http://www.w3.org/2000/svg" fill="none" aria-hidden="true" viewBox="0 0 250 48"><g id="Active Directory"><g id="Union"><path fill="#00AAF2" d="M32.7718 23.1288C33.8085 23.1343 34.8452 23.1398 35.8818 23.1398C36.9204 23.1398 37.9589 23.1343 38.9956 23.1288H38.9958C41.0636 23.1178 43.1241 23.1069 45.1627 23.1398C46.0266 23.1398 46.3721 22.893 46.3228 21.9797C46.2899 21.0088 46.3008 20.038 46.3118 19.0671C46.3173 18.5817 46.3228 18.0962 46.3228 17.6108C46.3557 14.9758 46.3447 12.3078 46.3337 9.6509V9.64911C46.3282 8.32447 46.3228 7.00258 46.3228 5.68888C46.3228 5.60779 46.3262 5.52457 46.3296 5.44152C46.3521 4.89253 46.3743 4.35077 45.4095 4.47941C40.6333 5.20139 35.8571 5.88172 31.081 6.56205C29.4889 6.78882 27.8969 7.0156 26.3048 7.24391C25.4903 7.39201 25.1941 7.68821 25.1941 8.55212C25.2434 12.9704 25.2434 17.364 25.1941 21.8316C25.1941 22.9423 25.589 23.1398 26.5516 23.1398C28.625 23.1069 30.6984 23.1179 32.7718 23.1288Z"/><path fill="#00AAF2" d="M46.3722 42.4666V34.2472C46.3722 33.5683 46.3691 32.8909 46.366 32.214V32.1921C46.3568 30.1443 46.3475 28.0999 46.4215 26.0277C46.4215 25.1144 46.1747 24.7195 45.1627 24.7195C38.9673 24.7195 32.7471 24.7195 26.4283 24.6702C25.4656 24.6702 25.1694 24.9663 25.1694 25.929L25.1697 25.9538C25.219 30.3637 25.268 34.749 25.1694 39.1097C25.1694 40.3192 25.5644 40.7141 26.6751 40.8622C28.2178 41.0782 29.7621 41.2927 31.3064 41.5071C35.9391 42.1504 40.5717 42.7937 45.1627 43.4786C46.076 43.6267 46.3722 43.4293 46.3722 42.4666Z"/><path fill="#00AAF2" d="M15.2962 24.7936H22.2568C22.9973 24.7936 23.3182 25.0404 23.3182 25.8056V39.5294C23.3182 40.3192 22.9726 40.3933 22.2568 40.3192C17.641 39.6281 13.0253 38.9616 8.43426 38.3199C7.52099 38.1718 7.22479 37.8756 7.22479 36.913C7.27416 33.2599 7.27416 29.6068 7.22479 25.8796C7.22479 24.9664 7.47162 24.7195 8.3849 24.7195C10.7298 24.7936 12.9759 24.7936 15.2962 24.7936Z"/><path fill="#00AAF2" d="M8.4343 23.1398H15.2962C16.4126 23.1398 17.5472 23.1276 18.6881 23.1153H18.6899C19.8438 23.1029 21.0041 23.0904 22.1581 23.0904C23.022 23.0904 23.4169 22.9423 23.4169 21.9797V8.84831C23.4169 7.9844 23.3182 7.63884 22.2568 7.78694C17.6658 8.52743 13.05 9.19387 8.4343 9.78627C7.52102 9.93437 7.27419 10.2306 7.27419 11.0945C7.32356 14.7229 7.32356 18.3266 7.27419 21.9303C7.27419 22.8436 7.57039 23.1398 8.4343 23.1398Z"/><path fill="#00AAF2" d="M63.6997 12.1558C63.6503 11.4153 63.6009 10.4527 63.6009 9.76159H63.5516C63.4449 10.224 63.2613 10.7504 63.0747 11.2855C63.0023 11.4931 62.9294 11.702 62.8604 11.909L61.8978 14.5748H61.3548L60.4909 11.9584C60.3003 11.4247 60.1391 10.8468 59.9846 10.293C59.9391 10.1297 59.8941 9.96839 59.8491 9.81095C59.8233 10.1463 59.8111 10.5694 59.7982 11.0166L59.7979 11.0242C59.7861 11.4305 59.7738 11.8564 59.7504 12.2546L59.6023 14.5995H58.9605L59.3554 9.04578H60.2687L61.2314 11.7609C61.4417 12.3078 61.5803 12.8726 61.7084 13.3942C61.7306 13.4847 61.7525 13.5739 61.7744 13.6615H61.8238C61.9719 13.1185 62.1693 12.452 62.4162 11.7609L63.4282 9.04578H64.3414L64.687 14.5995H63.8971L63.6997 12.1558Z"/><path fill="#00AAF2" d="M66.1186 9.93437C66.3654 9.93437 66.5629 9.7369 66.5629 9.49007C66.5629 9.24324 66.3654 9.04578 66.0692 9.04578C65.8224 9.04578 65.6249 9.24324 65.6249 9.49007C65.6249 9.7369 65.8224 9.93437 66.0692 9.93437H66.1186Z"/><path fill="#00AAF2" d="M65.773 10.6749V14.6241H66.5135V10.6749H65.773Z"/><path fill="#00AAF2" d="M70.5122 14.4514C70.1666 14.5995 69.7717 14.6982 69.3521 14.6982C68.1426 14.6982 67.3528 13.9083 67.3528 12.6495C67.3034 11.4894 68.1426 10.5514 69.3027 10.5021H69.5002C69.8458 10.5021 70.1913 10.5514 70.5122 10.6995L70.3641 11.2426C70.1173 11.1438 69.8211 11.0451 69.5002 11.0945C68.5869 11.0945 68.0933 11.7362 68.0933 12.6001C68.0933 13.5628 68.6857 14.1058 69.5002 14.1058C69.7964 14.1058 70.0926 14.0564 70.3641 13.9083L70.5122 14.4514Z"/><path fill="#00AAF2" d="M71.2997 11.1797L71.2997 11.1799C71.3128 11.3946 71.3267 11.6236 71.3267 11.8596L71.3761 14.6241H72.0672V12.4767C72.0672 12.4274 72.0795 12.378 72.0919 12.3286C72.1042 12.2793 72.1165 12.2299 72.1165 12.1805C72.2153 11.6128 72.5855 11.2179 73.0792 11.2179C73.1779 11.2179 73.2767 11.2179 73.326 11.2673V10.6255C73.2767 10.5761 73.1779 10.5761 73.1286 10.5761C72.6102 10.5761 72.1659 10.9464 72.0178 11.44H71.9684L71.9191 10.6502H71.2773C71.2773 10.8117 71.2882 10.9893 71.2997 11.1781V11.1797Z"/><path fill="#00AAF2" fill-rule="evenodd" d="M77.5962 12.6001C77.6456 13.6615 76.8557 14.5995 75.7944 14.6488H75.6463C74.5849 14.6488 73.7457 13.859 73.7457 12.6001C73.7457 11.2426 74.6589 10.5021 75.745 10.5021C76.7323 10.5021 77.5962 11.366 77.5962 12.6001ZM74.4368 12.6001C74.4368 13.39 74.8317 14.1058 75.6463 14.1058C76.4361 14.1058 76.8557 13.3653 76.8557 12.6001C76.8557 11.909 76.5595 11.0451 75.6463 11.0451C74.6836 11.0945 74.4368 11.909 74.4368 12.6001Z" clip-rule="evenodd"/><path fill="#00AAF2" d="M79.3488 14.1552C78.9785 14.1552 78.6823 14.0564 78.3861 13.859L78.2627 14.3033C78.6329 14.5007 78.9785 14.5995 79.3734 14.5995C80.3361 14.5995 80.8791 14.0811 80.8791 13.39C80.8791 12.7729 80.4595 12.4274 79.8177 12.1805C79.3241 11.9831 79.0772 11.835 79.0772 11.5388C79.0772 11.1932 79.3734 10.9464 79.719 10.9957C79.9658 10.9957 80.262 11.0945 80.5089 11.2426L80.657 10.7489C80.3361 10.6008 79.9905 10.5021 79.6449 10.5021C78.781 10.5021 78.2874 11.0204 78.2874 11.6622C78.2874 12.1805 78.6576 12.5755 79.3488 12.8223C79.8918 13.0691 80.0892 13.2666 80.0892 13.5628C80.0892 13.9083 79.8424 14.1552 79.3488 14.1552Z"/><path fill="#00AAF2" fill-rule="evenodd" d="M85.3467 12.6001C85.3961 13.6615 84.6062 14.5995 83.5448 14.6488H83.3967C82.3354 14.6488 81.4961 13.859 81.4961 12.6001C81.4961 11.2426 82.4094 10.5021 83.4955 10.5021C84.5075 10.5021 85.3467 11.366 85.3467 12.6001ZM82.2119 12.6001C82.2119 13.39 82.6069 14.1058 83.4214 14.1058C84.236 14.1058 84.6309 13.3653 84.6309 12.6001C84.6309 11.909 84.3347 11.0451 83.4214 11.0451C82.5082 11.0451 82.2119 11.909 82.2119 12.6001Z" clip-rule="evenodd"/><path fill="#00AAF2" d="M86.3094 11.1685V14.6241L87.0252 14.5254V11.1192H87.9878V10.5761H87.0252V10.3293C87.0252 9.71222 87.1733 9.16919 87.7657 9.16919C87.9138 9.16919 88.0619 9.21856 88.21 9.26792L88.3087 8.7249C88.1112 8.67553 87.9138 8.62616 87.7163 8.62616C87.3461 8.62616 87.0005 8.77426 86.7537 9.02109C86.4081 9.41602 86.26 9.93437 86.3094 10.428V10.6255H85.7663V11.1685H86.3094Z"/><path fill="#00AAF2" d="M89.6168 9.44071V10.6008H90.6782V11.1438H89.6168V13.2913C89.6168 13.7849 89.7649 14.0318 90.1599 14.0318C90.308 14.0318 90.4561 14.0318 90.5548 13.9824L90.6041 14.5254C90.4067 14.6242 90.2092 14.6241 89.9624 14.6241C89.6662 14.6241 89.4194 14.5254 89.1725 14.328C88.9751 14.0318 88.8763 13.6368 88.9257 13.2666V11.0698H88.3333V10.5268H88.9257V9.56412L89.6168 9.44071Z"/><path fill="#00AAF2" fill-rule="evenodd" d="M61.3547 35.5801L63.2553 29.7055V29.6808H69.8704L71.8697 35.5554H74.4368L68.0685 16.9197H65.2053L58.8371 35.5801H61.3547ZM67.5749 22.498L69.3767 27.8543H63.7984L65.6002 22.4487C65.9705 21.3379 66.2667 20.2025 66.5135 19.0918H66.6122C66.8838 20.1532 67.1799 21.2886 67.5749 22.498Z" clip-rule="evenodd"/><path fill="#00AAF2" d="M86.2599 35.1111C85.0505 35.6541 83.7423 35.9009 82.4094 35.9009C78.4107 35.9009 75.7449 33.1364 75.7449 29.0884C75.7449 25.0404 78.6082 21.9797 82.903 21.9797C84.0631 21.9797 85.1986 22.1772 86.2599 22.6708L85.7169 24.5221C84.853 24.0778 83.8657 23.8803 82.8537 23.8803C79.793 23.8803 78.1392 26.1758 78.1392 28.9403C78.1392 32.0504 80.1385 33.951 82.8043 33.951C83.8163 33.951 84.853 33.7535 85.7663 33.3092L86.2599 35.1111Z"/><path fill="#00AAF2" d="M92.4307 22.2265V18.376L89.9624 18.9684V22.2265H87.9137V24.0284H90.0118V31.3346C90.0118 32.939 90.2833 34.0497 90.9251 34.8396C91.5915 35.506 92.5295 35.9009 93.5415 35.8516C94.5288 35.8516 95.294 35.7528 95.7383 35.506L95.6395 33.7042C95.1952 33.8029 94.6769 33.8523 94.2326 33.8523C92.875 33.8523 92.4307 32.8896 92.4307 31.2358V24.0284H95.8864V22.2265H92.4307Z"/><path fill="#00AAF2" d="M101.341 18.4747C101.341 19.2646 100.749 19.931 99.9344 19.9804H99.8357C99.0458 19.9804 98.3794 19.388 98.3794 18.6228V18.5241C98.33 17.7342 98.9718 17.0184 99.7863 17.0184H99.885C100.7 16.9197 101.341 17.6108 101.341 18.4747Z"/><path fill="#00AAF2" d="M98.6509 35.5554V22.2265H101.045V35.5554H98.6509Z"/><path fill="#00AAF2" d="M108.672 29.7549L106.056 22.2265H103.513L108.574 35.5554H110.918L116.176 22.2265H113.609L110.979 29.7948L110.978 29.7954L110.978 29.7964L110.978 29.797L110.977 29.7982L110.977 29.7984L110.977 29.7985C110.563 30.9917 110.174 32.1131 109.882 33.2105H109.783C109.462 32.0998 109.117 30.9643 108.672 29.7549Z"/><path fill="#00AAF2" fill-rule="evenodd" d="M124.05 34.0004C121.643 34.0004 119.554 32.6563 119.484 29.3846H128.838C128.845 29.3263 128.852 29.2694 128.859 29.2136C128.9 28.868 128.937 28.5646 128.937 28.2245C128.937 25.7562 127.802 21.955 123.433 21.955C119.459 21.955 117.114 25.1145 117.114 29.1625C117.114 33.1611 119.582 35.9256 123.68 35.9256C125.235 35.975 126.74 35.6541 128.147 35.0617L127.752 33.3092C126.913 33.7042 125.802 34.0004 124.05 34.0004ZM126.592 27.5828C126.642 26.0771 125.95 23.6828 123.235 23.6828C120.792 23.6828 119.681 25.929 119.483 27.5828H126.592Z" clip-rule="evenodd"/><path fill="#00AAF2" fill-rule="evenodd" d="M143.031 16.8209C141.278 16.8209 139.575 16.969 137.872 17.2159L137.823 35.5554C139.279 35.7529 140.785 35.8022 142.241 35.8022C145.845 35.8022 148.708 34.8396 150.461 33.0871C152.213 31.3346 153.176 28.891 153.176 25.8303C153.176 22.8683 152.213 20.6715 150.559 19.1658C148.955 17.6108 146.487 16.8209 143.031 16.8209ZM142.735 33.8523C141.945 33.8523 141.13 33.8029 140.341 33.7042L140.316 19.0177C141.278 18.8696 142.216 18.7709 143.179 18.7709C148.264 18.7709 150.757 21.5107 150.707 25.929C150.707 30.989 147.894 33.8523 142.735 33.8523Z" clip-rule="evenodd"/><path fill="#00AAF2" d="M159.026 18.4747C159.026 19.2646 158.433 19.931 157.619 19.9804H157.52C156.73 19.9804 156.064 19.388 156.064 18.6228V18.5241C156.014 17.7342 156.656 17.0184 157.471 17.0184H157.569C158.335 16.9197 159.026 17.6108 159.026 18.4747Z"/><path fill="#00AAF2" d="M156.286 35.5554V22.2265H158.68V35.5554H156.286Z"/><path fill="#00AAF2" d="M162.629 22.2265C162.679 23.4854 162.728 24.8429 162.728 26.398L162.827 35.5554H165.221V28.3973C165.221 28.0271 165.221 27.6321 165.32 27.2866C165.665 25.4847 166.826 24.1765 168.578 24.1765C168.874 24.1765 169.121 24.2259 169.368 24.2752V21.9797C169.17 21.9303 168.973 21.9303 168.726 21.9303C167.122 21.9303 165.616 23.0411 164.974 24.8429H164.876L164.777 22.2265H162.629Z"/><path fill="#00AAF2" fill-rule="evenodd" d="M177.439 34.0004C175.032 34.0004 172.943 32.6563 172.874 29.3846H182.228C182.234 29.3281 182.241 29.273 182.248 29.2189L182.248 29.2136C182.29 28.868 182.326 28.5646 182.326 28.2245C182.326 25.7562 181.191 21.955 176.822 21.955C172.848 21.955 170.503 25.1145 170.503 29.1625C170.503 33.1611 172.972 35.9256 177.069 35.9256C178.624 35.975 180.13 35.6541 181.537 35.0617L181.142 33.3092C180.302 33.7042 179.192 34.0004 177.439 34.0004ZM179.982 27.5828C180.031 26.0771 179.34 23.6828 176.625 23.6828C174.181 23.6828 173.07 25.929 172.873 27.5828H179.982Z" clip-rule="evenodd"/><path fill="#00AAF2" d="M191.015 35.9009C192.348 35.9009 193.656 35.6541 194.865 35.1111L194.372 33.3092C193.458 33.7535 192.422 33.951 191.41 33.951C188.744 33.951 186.745 32.0504 186.745 28.9403C186.745 26.1758 188.398 23.8803 191.459 23.8803C192.471 23.8803 193.458 24.0778 194.322 24.5221L194.865 22.6708C193.804 22.1772 192.669 21.9797 191.509 21.9797C187.214 21.9797 184.35 25.0404 184.35 29.0884C184.35 33.1364 187.016 35.9009 191.015 35.9009Z"/><path fill="#00AAF2" d="M201.036 18.376V22.2265H204.492V24.0284H201.036V31.2358C201.036 32.8896 201.481 33.8523 202.838 33.8523C203.282 33.8523 203.801 33.8029 204.245 33.7042L204.344 35.506C203.899 35.7528 203.134 35.8516 202.147 35.8516C201.135 35.9009 200.197 35.506 199.531 34.8396C198.889 34.0497 198.617 32.939 198.617 31.3346V24.0284H196.569V22.2265H198.617V18.9684L201.036 18.376Z"/><path fill="#00AAF2" fill-rule="evenodd" d="M212.465 35.9009C215.575 35.9009 219.178 33.8029 219.178 28.891C219.178 24.5961 216.513 21.9303 212.761 21.9303C209.157 21.9303 206.096 24.4727 206.096 28.9403C206.096 33.2845 208.96 35.9009 212.465 35.9009ZM212.637 34.0497C209.947 34.0497 208.589 31.6555 208.589 28.9403C208.589 26.5461 209.651 23.6828 212.637 23.6828C215.624 23.6828 216.735 26.5461 216.735 28.891C216.735 31.6555 215.303 34.0497 212.637 34.0497Z" clip-rule="evenodd"/><path fill="#00AAF2" d="M222.239 26.398C222.239 24.8429 222.19 23.4854 222.14 22.2265H224.288L224.386 24.8429H224.485C225.127 23.0411 226.633 21.9303 228.237 21.9303C228.484 21.9303 228.681 21.9303 228.879 21.9797V24.2752C228.632 24.2259 228.385 24.1765 228.089 24.1765C226.336 24.1765 225.176 25.4847 224.831 27.2866C224.732 27.632 224.732 28.0269 224.732 28.397V35.5554H222.338L222.239 26.398Z"/><path fill="#00AAF2" d="M235.765 30.1004L232.853 22.2265V22.2512H230.236L235.148 34.5187C235.247 34.7162 235.346 34.9136 235.346 35.1605C235.346 35.3579 235.247 35.5554 235.148 35.7528C234.704 36.8142 234.013 37.7275 233.149 38.468C232.507 39.0357 231.791 39.4306 231.001 39.6775L231.594 41.7262C232.705 41.43 233.692 40.9116 234.556 40.1711C236.21 38.7148 237.37 36.3206 239.122 31.7542L242.775 22.2265H240.208L237.542 30.1004C237.289 30.7583 237.094 31.4391 236.917 32.0564C236.835 32.3425 236.757 32.6148 236.679 32.8649H236.629C236.407 32.001 236.061 30.9643 235.765 30.1004Z"/></g></g></svg>

<svg xmlns="http://www.w3.org/2000/svg" fill="none" aria-hidden="true" viewBox="0 0 250 48"><g fill="#00AAF2"><path d="M32.772 23.129c1.037.005 2.073.01 3.11.01 1.038 0 2.077-.005 3.114-.01 2.068-.011 4.128-.022 6.167.01.864 0 1.21-.246 1.16-1.16a64.423 64.423 0 0 1-.011-2.912c.005-.485.01-.97.01-1.456.034-2.635.023-5.303.012-7.96v-.002a955.75 955.75 0 0 1-.011-3.96c0-.081.003-.164.007-.247.022-.55.044-1.091-.92-.963-4.777.722-9.553 1.403-14.329 2.083a5089.4 5089.4 0 0 0-4.776.682c-.815.148-1.11.444-1.11 1.308.048 4.418.048 8.812 0 13.28 0 1.11.394 1.308 1.357 1.308 2.073-.033 4.146-.022 6.22-.011Zm13.6 19.338v-8.22c0-.679-.003-1.356-.006-2.033v-.022c-.01-2.048-.019-4.092.056-6.164 0-.914-.247-1.308-1.26-1.308-6.195 0-12.415 0-18.734-.05-.962 0-1.259.296-1.259 1.259v.025c.05 4.41.099 8.795 0 13.156 0 1.21.395 1.604 1.506 1.752 1.543.216 3.087.43 4.631.645 4.633.643 9.266 1.287 13.857 1.972.913.148 1.21-.05 1.21-1.012ZM15.296 24.794h6.96c.741 0 1.062.246 1.062 1.012v13.723c0 .79-.345.864-1.061.79-4.616-.69-9.232-1.357-13.823-2-.913-.147-1.21-.443-1.21-1.406.05-3.653.05-7.306 0-11.033 0-.914.248-1.16 1.16-1.16 2.346.074 4.592.074 6.912.074ZM8.434 23.14h6.862c1.117 0 2.251-.012 3.392-.025h.002c1.154-.012 2.314-.025 3.468-.025.864 0 1.259-.148 1.259-1.11V8.848c0-.864-.099-1.21-1.16-1.061-4.591.74-9.207 1.407-13.823 2-.913.147-1.16.444-1.16 1.307.05 3.629.05 7.233 0 10.836 0 .914.296 1.21 1.16 1.21ZM63.7 12.156c-.05-.74-.1-1.703-.1-2.394h-.048c-.107.462-.29.988-.477 1.524-.073.207-.146.416-.215.623l-.962 2.666h-.543l-.864-2.617a24.9 24.9 0 0 1-.506-1.665c-.046-.163-.09-.325-.136-.482a25.89 25.89 0 0 0-.05 1.206l-.001.007c-.012.407-.024.832-.048 1.23l-.148 2.346h-.641l.394-5.554h.914l.962 2.715c.21.547.35 1.112.477 1.633l.066.268h.05c.148-.544.345-1.21.592-1.901l1.012-2.715h.913l.346 5.554h-.79l-.197-2.444Zm2.419-2.222a.442.442 0 0 0 .444-.444c0-.247-.198-.444-.494-.444a.442.442 0 0 0-.444.444c0 .247.197.444.444.444h.05Zm-.346.741v3.95h.74v-3.95h-.74Zm4.739 3.776c-.345.149-.74.247-1.16.247-1.21 0-2-.79-2-2.049-.049-1.16.79-2.098 1.95-2.147h.198c.346 0 .691.05 1.012.197l-.148.544c-.247-.1-.543-.198-.864-.149-.913 0-1.407.642-1.407 1.506 0 .963.593 1.506 1.407 1.506.296 0 .593-.05.864-.198l.148.543Zm.788-3.271c.013.215.027.444.027.68l.05 2.764h.69v-2.147c0-.05.013-.099.025-.148a.62.62 0 0 0 .025-.149c.098-.567.468-.962.962-.962.099 0 .198 0 .247.05v-.643c-.05-.049-.148-.049-.197-.049-.519 0-.963.37-1.111.864h-.05l-.049-.79h-.642c0 .162.011.34.023.528v.002Z"/><path fill-rule="evenodd" d="M77.596 12.6c.05 1.062-.74 2-1.802 2.049h-.148c-1.061 0-1.9-.79-1.9-2.049 0-1.357.913-2.098 1.999-2.098.987 0 1.851.864 1.851 2.098Zm-3.16 0c0 .79.396 1.506 1.21 1.506.79 0 1.21-.74 1.21-1.506 0-.691-.296-1.555-1.21-1.555-.962.05-1.21.864-1.21 1.555Z" clip-rule="evenodd"/><path d="M79.349 14.155a1.65 1.65 0 0 1-.963-.296l-.123.444c.37.198.715.296 1.11.296.963 0 1.506-.518 1.506-1.209 0-.617-.42-.963-1.061-1.21-.494-.197-.74-.345-.74-.641 0-.346.295-.593.641-.543.247 0 .543.098.79.247l.148-.494a2.444 2.444 0 0 0-1.012-.247c-.864 0-1.358.518-1.358 1.16 0 .518.37.913 1.062 1.16.543.247.74.445.74.74 0 .346-.247.593-.74.593Z"/><path fill-rule="evenodd" d="M85.347 12.6c.05 1.062-.74 2-1.802 2.049h-.148c-1.062 0-1.9-.79-1.9-2.049 0-1.357.912-2.098 1.999-2.098 1.011 0 1.85.864 1.85 2.098Zm-3.135 0c0 .79.395 1.506 1.21 1.506.814 0 1.209-.74 1.209-1.506 0-.691-.296-1.555-1.21-1.555-.913 0-1.21.864-1.21 1.555Z" clip-rule="evenodd"/><path d="M86.31 11.168v3.456l.715-.099V11.12h.963v-.543h-.963v-.247c0-.617.148-1.16.74-1.16.149 0 .297.05.445.099l.099-.543a2.452 2.452 0 0 0-.593-.099c-.37 0-.715.148-.962.395a1.861 1.861 0 0 0-.445 1.407v.197h-.543v.543h.543Zm3.307-1.728v1.16h1.061v.544h-1.061v2.147c0 .494.148.74.543.74.148 0 .296 0 .395-.049l.05.543c-.198.1-.396.1-.643.1-.296 0-.543-.1-.79-.297a1.587 1.587 0 0 1-.246-1.061V11.07h-.593v-.543h.593v-.963l.69-.123Z"/><path fill-rule="evenodd" d="m61.355 35.58 1.9-5.874v-.025h6.615l2 5.874h2.567L68.069 16.92h-2.864l-6.368 18.66h2.518Zm6.22-13.082 1.802 5.356h-5.579L65.6 22.45c.37-1.111.667-2.247.913-3.357h.1c.27 1.061.567 2.197.962 3.406Z" clip-rule="evenodd"/><path d="M86.26 35.111c-1.21.543-2.518.79-3.85.79-4 0-6.665-2.765-6.665-6.813s2.863-7.108 7.158-7.108c1.16 0 2.296.197 3.357.69l-.543 1.852c-.864-.444-1.851-.642-2.863-.642-3.061 0-4.715 2.296-4.715 5.06 0 3.11 2 5.011 4.665 5.011 1.012 0 2.049-.197 2.962-.642l.494 1.802Zm6.17-12.884v-3.851l-2.468.592v3.259h-2.048v1.801h2.098v7.307c0 1.604.271 2.715.913 3.505a3.459 3.459 0 0 0 2.617 1.012c.987 0 1.752-.1 2.196-.346l-.099-1.802a6.814 6.814 0 0 1-1.406.148c-1.358 0-1.802-.962-1.802-2.616v-7.208h3.455v-1.801h-3.455Zm8.911-3.752c0 .79-.592 1.456-1.407 1.505h-.098c-.79 0-1.457-.592-1.457-1.357v-.099c-.049-.79.593-1.506 1.407-1.506h.099c.815-.098 1.456.593 1.456 1.457Zm-2.691 17.08V22.227h2.395v13.328h-2.394Zm10.022-5.8-2.616-7.528h-2.543l5.061 13.328h2.344l5.258-13.328h-2.567l-2.63 7.568h-.001v.002l-.001.001c-.414 1.194-.803 2.315-1.095 3.413h-.099a49.978 49.978 0 0 0-1.111-3.456Z"/><path fill-rule="evenodd" d="M124.05 34c-2.407 0-4.496-1.344-4.566-4.615h9.354l.021-.171c.041-.346.078-.65.078-.99 0-2.468-1.135-6.269-5.504-6.269-3.974 0-6.319 3.16-6.319 7.208 0 3.998 2.468 6.763 6.566 6.763 1.555.049 3.06-.272 4.467-.864l-.395-1.753c-.839.395-1.95.691-3.702.691Zm2.542-6.417c.05-1.506-.642-3.9-3.357-3.9-2.443 0-3.554 2.246-3.752 3.9h7.109Zm16.439-10.763c-1.753 0-3.456.149-5.159.396l-.049 18.34c1.456.197 2.962.246 4.418.246 3.604 0 6.467-.962 8.22-2.715 1.752-1.752 2.715-4.196 2.715-7.257 0-2.962-.963-5.158-2.617-6.664-1.604-1.555-4.072-2.345-7.528-2.345Zm-.296 17.032c-.79 0-1.605-.05-2.394-.148l-.025-14.686c.962-.148 1.9-.247 2.863-.247 5.085 0 7.578 2.74 7.528 7.158 0 5.06-2.813 7.923-7.972 7.923Z" clip-rule="evenodd"/><path d="M159.026 18.475c0 .79-.593 1.456-1.407 1.505h-.099c-.79 0-1.456-.592-1.456-1.357v-.099c-.05-.79.592-1.506 1.407-1.506h.098c.766-.098 1.457.593 1.457 1.457Zm-2.74 17.08V22.227h2.394v13.328h-2.394Zm6.343-13.328c.05 1.258.099 2.616.099 4.171l.099 9.157h2.394v-7.158c0-.37 0-.765.099-1.11.345-1.802 1.506-3.11 3.258-3.11.296 0 .543.049.79.098V21.98c-.198-.05-.395-.05-.642-.05-1.604 0-3.11 1.111-3.752 2.913h-.098l-.099-2.616h-2.148Z"/><path fill-rule="evenodd" d="M177.439 34c-2.407 0-4.496-1.344-4.565-4.615h9.354l.02-.166v-.005c.042-.346.078-.65.078-.99 0-2.468-1.135-6.269-5.504-6.269-3.974 0-6.319 3.16-6.319 7.208 0 3.998 2.469 6.763 6.566 6.763 1.555.049 3.061-.272 4.468-.864l-.395-1.753c-.84.395-1.95.691-3.703.691Zm2.543-6.417c.049-1.506-.642-3.9-3.357-3.9-2.444 0-3.555 2.246-3.752 3.9h7.109Z" clip-rule="evenodd"/><path d="M191.015 35.9c1.333 0 2.641-.246 3.85-.789l-.493-1.802c-.914.445-1.95.642-2.962.642-2.666 0-4.665-1.9-4.665-5.01 0-2.765 1.653-5.06 4.714-5.06 1.012 0 1.999.197 2.863.641l.543-1.851c-1.061-.494-2.196-.691-3.356-.691-4.295 0-7.159 3.06-7.159 7.108s2.666 6.813 6.665 6.813Zm10.021-17.524v3.85h3.456v1.802h-3.456v7.208c0 1.654.445 2.616 1.802 2.616.444 0 .963-.05 1.407-.148l.099 1.802c-.445.247-1.21.346-2.197.346a3.458 3.458 0 0 1-2.616-1.012c-.642-.79-.914-1.901-.914-3.505v-7.307h-2.048v-1.801h2.048v-3.259l2.419-.592Z"/><path fill-rule="evenodd" d="M212.465 35.9c3.11 0 6.713-2.097 6.713-7.009 0-4.295-2.665-6.96-6.417-6.96-3.604 0-6.665 2.542-6.665 7.01 0 4.344 2.864 6.96 6.369 6.96Zm.172-1.85c-2.69 0-4.048-2.394-4.048-5.11 0-2.394 1.062-5.257 4.048-5.257 2.987 0 4.098 2.863 4.098 5.208 0 2.765-1.432 5.159-4.098 5.159Z" clip-rule="evenodd"/><path d="M222.239 26.398c0-1.555-.049-2.913-.099-4.171h2.148l.098 2.616h.099c.642-1.802 2.148-2.913 3.752-2.913.247 0 .444 0 .642.05v2.295a3.8 3.8 0 0 0-.79-.098c-1.753 0-2.913 1.308-3.258 3.11-.099.345-.099.74-.099 1.11v7.158h-2.394l-.099-9.157Zm13.526 3.702-2.912-7.873v.024h-2.617l4.912 12.268c.099.197.198.395.198.642 0 .197-.099.394-.198.592a7.27 7.27 0 0 1-1.999 2.715 5.818 5.818 0 0 1-2.148 1.21l.593 2.048a7.436 7.436 0 0 0 2.962-1.555c1.654-1.456 2.814-3.85 4.566-8.417l3.653-9.527h-2.567l-2.666 7.873c-.253.658-.448 1.34-.625 1.956-.082.287-.16.559-.238.809h-.05c-.222-.864-.568-1.9-.864-2.765Z"/></g></svg>
